X:26
T:Larry O'Gaff     Jig      Allan's #26
C:Irish Trad.
B:Allan's Irish Fiddler (pub. Mozart Allen,  Glascow) date unknown
Z:FROM ALLAN'S TO NOTEWORTHY, FROM NOTEWORTHY TO ABC, MIDI AND .TXT BY VINCE
BRENNAN Dec. 2002 (HTTP://WWW.SOSYOURMOM.COM)
I:abc2nwc
M:6/8
L:1/8
K:G
d|{ef}g2G BAG|ded dBG|cec BdB|ABc def|
{ef}g2G BAG|ded dBG|cec BdB|AGF G2:|
|:d|def gfg|aba afd|dfg aga|bgg g2B/2c/2|
def gfe|ded dBG|cec BdB|AGF G2:|
